X:1
T:So wünsch' ich mir zu guter Letzt
T:Johann Sebastian Bach
T:Johann Rist
T:So wünsch' ich mir zu guter Letzt
T:CPDL   —   Creative Commons Attribution Non Commercial 3.0
C:Johann Sebastian Bach
Z:Johann Rist
Z:CPDL   —   Creative Commons Attribution Non Commercial 3.0
%%score [ ( 1 2 ) ( 3 4 ) ]
L:1/8
Q:1/4=72
M:4/4
K:G
V:1 treble nm="Sopran\nAlt"
V:2 treble 
V:3 bass nm="Tenor\nBass"
V:4 bass 
V:1
"^Ziemlich langsam"!mf! D2 | G2!<(! A2 B2!<)! e2 | d2 c!>(!B A2!>)! z d | G2 A2 B2 A2 | %4
w: 1.  So|wünsch' ich mir zu|gu- ter * Letzt ein|se- lig Stünd- lein,|
w: 2.  Sei|gnä- dig mir, mein|treu- er * Gott, in|mei- ner letz- ten|
 G2 FE!>(! E4 | D4!>)! z2 A2 | A2 F2!<(! ^D2 B2!<)! | B2!>(! AG F2!>)! z!<(! B | c2 B2!<)! A2 G2 | %9
w: um zu * ster-|ben, das|mich für al- les|Leid er- * götzt und|krö- net mich zum|
w: To- des- * stun-|de, ver-|sü- ße mir die|To- des- * not, er-|bar- me dich für|
 F2 GF!>(! F4!>)! | E4 z2 |:"^"!mf! e2 | de dc B2 A2 |!>(! G3 A!>)! F2 z D |!<(! G2 A2 B2!<)! c2 | %15
w: Him- mels- * er-|ben.|||||
w: Chris- ti * Wun-|den!|||||
 d2 GA!>(! F4!>)! | G4 z2 :| %17
w: ||
w: ||
V:2
 D2 | D2 D2 D2 G2 | A2 AG F2 x G | E2 E2 ^D2 F2 | E2 =D2 (E2 ^C2) | D4 x2 D2 | =C2 A,2 B,2 E2 | %7
w: |||||||
w: |||||||
w: |||||||
w: |||||||
 F2 FE ^D2 x E | E2 =D2 E2 E2 | D2 E2 (E2 ^D2) | E4 x2 |: G2 | A2 F2 G2 F2 | G2 E2 D2 x D | %14
w: ||||Komm,|sanf- ter Tod, und|zei- ge mir, wo|
w: ||||bis|mei- ne Seel' auch|mit Be- gier zu|
w: ||||Mein|letz- ter Wunsch soll|die- ser sein: Herr|
w: ||||mein'|Leib und Seel'! So|schlaf ich ein recht|
 D2 D2 D2 G2 | FE D2 D4 | D4 x2 :| %17
w: denn mein Freund in|Ru- * he wei-|det,|
w: ihm aus die- ser|Welt * ab- schei-|det.|
w: Je- su, nimm in|dei- * ne Hän-|de|
w: se- lig an dem|Le- * bens- en-|de.|
V:3
!mf! F,2 | G,2!<(! F,2 G,2!<)! B,2 | A,2 D2!>(! D2!>)! z D | B,2 A,2 F,2 B,2 | %4
 B,2 A,2!>(! (B,2 A,2) | F,4!>)! z2 A,2 | E,2 E,2!<(! F,2 G,2!<)! | B,2!>(! B,2 B,2!>)! z!<(! G, | %8
 G,2 G,2!<)! C2 B,2 | B,2 B,2!>(! (C2 B,A,)!>)! | G,4 z2 |:!mf!"^" B,2 | A,2 D2 D2 DC | %13
!>(! B,2 A,2!>)! A,2 z F, |!<(! G,2 F,2 G,2!<)! G,2 | A,2 B,2!>(! (A,2 C2)!>)! | B,4 z2 :| %17
V:4
 D,C, | B,,2 D,2 G,2 E,2 | F,2 G,2 D,2 x B,, | E,2 C,2 B,,2 ^D,2 | E,2 F,2 (G,2 A,2) | %5
 D,4 x2 F,,2 | A,,2 C,2 B,,2 G,2 | ^D,2 E,2 B,,2 x E, | C,2 G,,2 A,,2 E,2 | B,,2 G,,2 (A,,2 B,,2) | %10
 E,4 x2 |: E,2 | F,2 D,2 G,2 D,2 | E,2 ^C,2 D,2 x =C, | B,,2 D,2 G,2 E,2 | D,C, B,,2 D,4 | %16
 G,,4 x2 :| %17

